X:1
T:Petite fleur
T:Petite fleur
T:Thomas Crecquillon
C:Thomas Crecquillon
%%score [ 1 2 3 4 ]
L:1/8
Q:1/4=100
M:2/2
K:C
V:1 treble nm="Superius" snm="S"
V:2 treble nm="Altus" snm="A"
V:3 treble-8 nm="Tenor" snm="T"
V:4 bass nm="Bassus" snm="B"
V:1
 z8 | z8 | z8 | z4 G2 GA | B2 d2 c2 B2 | A2 G3 A BG | cB AG A4 | G4 z4 | z4 G2 GA | B2 d2 c2 B2 | %10
w: |||Pe- ti- te|fleur coin- ct'et jo-|ly- * * * *||e,|pe- ti- te|fleur coin- ct'et jo-|
 A4 G4 | z2 g2 gfed | cB A2 f2 fe | dc BA G4 | z4 z2 g2 | gfed cB Ac | B2 A4 G2- | G2 F2 G4 | %18
w: ly- e,|las dic- tes moy si|vous m'ai- mez, si vous _|m'ai- * * * mez,|si|vous _ _ _ _ _ _ _|_ m'ai- *|* * mez,|
 z2 B2 cBAA | BAGG AGGF | G3 A Bc d2- | d2 c4 B2 | c8- | c4 z4 |: G2 cd eeff | e2 g2 f e2 d | %26
w: a- vec- que moy plus|m'at- ten- dez, a- vec- que moy plus|m'at- * * * *|* * ten-|dez,|_|car il m'en- nuy' ma doul- ce'a-|my- * * * *|
 e c2 B c A2 G | A2 z2 z4 | z4 G2 cd | eeff ed cB | AG cB AG G2- |"^#" G2 F2 G4- | G4 z4 |1 %33
w: |e,|car il m'en-|nuy' ma doul- ce'a- my- * * *||* * e,|_|
[M:2/4] z4 :|2[M:2/2]"^#" G2 F2 G4- || G8 |] %36
w: |(my)- * e.|_|
V:2
 z8 | z8 | z8 | C2 CD E2 G2- | G2 F2 E2 D2 | CDEF G2 E2 | A2 G4 F2 | G2 z2 C2 CC | D2 F4 E2 | %9
w: |||Pe- ti- te fleur coin-|* ct'et jo- ly-|||e, pe- ti- te|fleur coin- ct'et|
 D2 D2 E2 G2 | F2 E2 D4 | CGGF E4 | z2 A2 AG F2 | z2 G2 GFED | C3 D E2 D2 | C2 E4 F2 | F3 E D2 C2 | %17
w: jo- ly- * *||e, las dic- tes moy,|las dic- tes moy,|las dic- tes moy si|vous _ _ m'ai-|mez, si vous|m'ai- * * *|
 D4 z4 | F2 GF EEFE | DDED CCDC | B,2 E2 DCB,A, | G,2 G3 F D2 | E4 z4 | z2 C2 FGAA |: B2 AF G2 FD | %25
w: mez,|a- vec- que moy plus m'at- ten|dez, a- vec- que moy plus m'at- ten-|dez, plus m'at- * * *|* * * ten-|dez,|car il m'en- nuy- e|ma doul- ce'a- my- * *|
 G2 G2 A G2 F | GE D2 C2 D2 | E D2 C D2 A,2 | C2 G,2 z2 G2 | G2 A2 G2 E2 | F6 E2 | D4 B,4 | %32
w: e, ma doul- * ce'a-|my- * * * *||* e, car|il m'en- nuy- *||* e,|
 z4 z2 C2 |1[M:2/4] FG AA :|2[M:2/2] D4 B,4- || B,8 |] %36
w: car|il m'en- nuy- e|(my)- e.|_|
V:3
 z4 G2 GA | B2 d2 c2 B2 | A2 G4 A2- | A2 GF c4 | z8 | c2 cd e2 g2 | f2 e2 d4 | G2 G2 A2 c2- | %8
w: Pe- ti- te|fleur coin- ct'et jo-|ly- * *|* * * e,||pe- ti- te fleur coin-|ct'et jo- ly-|e, pe- ti- *|
 c2 B2 c3 B | G2 B2 A2 G2 | A2 c4 B2 | c4 z4 | z2 f2 fedc | BA G4 c2 | A2 c4 B2 | e2 c4 c2 | %16
w: * te fleur _|_ coin- ct'et jo-|ly- * *|e,|las dic- tes moy si|vous m'ai- mez, las|dic- * tes|moy si vous|
 d3 c B2 AG | A4 G4 | d2 ed ccdc | BBcB AABA | G2 c2 B3 c | d2 e2 d4 | c2 z G cdee | %23
w: m'ai- * * * *|* mez,|a- vec- que moy plus m'at- ten-|dez, a- vec- que moy plus m'at- ten-|dez, plus m'at- *|* * ten-|dez, car il m'en- nuy- e|
 f2 ec d2 cd- |: de f2 e c2 B | c2 e2 fc d2 | c2 z2 z2 G2 | cdee f2 f2 | e2 d2 c3 B | c4 z2 c2 | %30
w: ma doul- ce'a- my- * *|||e, car|il m'en- nuy- e ma doul-|ce'a- my- * *|e, car|
 c2 A2 c2 B2 | A4 G2 z G | cdee f2 ec |1[M:2/4] d2 cd :|2[M:2/2] A4 G4- || G8 |] %36
w: il m'en- nuy- *|* e, car|il m'en- nuy- e ma doul- ce'a-|my- * *|(my)- e.|_|
V:4
 C,2 C,D, E,2 G,2- | G,2 F,2 E,2 D,2 | C,3 D, E,2 F,2- | F,2 E,D, C,4 | z8 | z8 | z4 D,2 D,D, | %7
w: Pe- ti- te fleur coin-|* ct'et jo- ly-||* * * e,|||pe- ti- te|
 E,2 G,2 F,2 E,2 | D,4 C,4 | z2 G,2 C,2 E,2 | F,4 G,4 | C,4 C2 CB, | A,G,F,E, D,4 | %13
w: fleur coin- ct'et jo-|ly- e,|coin- ct'et jo-|ly- *|e, las dic- tes|moy si vous m'ai- mez,|
 G,2 G,F, E,D, C,2 | F,2 A,2 G,4 | C2 CB, A,G,F,E, | D,2 F,2 G,2 E,2 | D,4 G,4 | z2 G,2 A,G,F,F, | %19
w: las dic- tes moy si vous|m'ai- * mez,|las dic- tes moy si vous m'ai-||* mez,|a- vec- que moy plus|
 G,F,E,E, F,E,D,D, | E,2 C,2 G,3 A, | B,2 C2 G,4 | C,4 z2 C,2 | F,G,A,A, B,2 A,F, |: %24
w: m'at- ten- dez, a- vec- que moy plus|m'at- * * *|* * ten-|dez, car|il m'en- nuy- e ma doul- ce'a-|
 G,2 F,D, C,E, D,2 | C,4 z4 | C,2 F,G, A,A, B,2 | A,F, G,A, D,E, F,G, | A, C2 B, C C,2 G, | %29
w: my- * * * * *|e,|car il m'en- nuy- e ma|doul- ce'a- my- * * * * *||
 C,2 F,2 C,2 C,2 | F,6 G,2 | D,4 G,4 | z2 C,2 F,G,A,A, |1[M:2/4] B,2 A,F, :|2[M:2/2] D,4 G,4- || %35
w: e, car il m'en-|nuy- *|* e,|car il m'en- nuy- e|ma doul- ce'a-|(my)- e.|
 G,8 |] %36
w: _|

